X: 36246
T: Seaforth Highlanders, The
R: strathspey
M: 4/4
K: Amajor
B|A/A/A a2 A/A/A e2|A/A/A a2 cAAA|A/A/A a2 A/A/A e2|B=gdg BGGB|
A/A/A a2 A/A/A e2|A/A/A a2 cAAc|d<df>d c<ce>c|B=gdg BGGB|
A/A/A e2 A/A/A f2|A/A/A e2 cABc|A/A/A e2 A/A/A f2|B=gdg BGGB|
A/A/A e2 A/A/A e2|A/A/A e2 cAAc|d<fd>f cece|BgBg BGG||

